X:2
T:Lucky in Love
R:reel
M:4/4
L:1/8
K:G
&quot;Variations&quot;\
gagd BGGA|BGdB cA~A2|g2gd BGAB|1 cBAc BG~G2:|2 cBAc BGGA|]
BGdG eGdG|BGdB cAAc|1 BGdG eBdB|cBAc BGGA:|2 BGBd eaag|fdef gbaf|]
</abc>
